_uploads/accordion-expand.svg

<svg width="21" height="21" fill="none" xmlns="http://www.w3.org/2000/svg"><path fill-rule="evenodd" clip-rule="evenodd" d="M11 0h-1v10H0v1h10v10h1V11h10v-1H11V0z" fill="#000"/></svg>

<svg width="21" height="21" viewBox="0 0 21 21" fill="none" xmlns="http://www.w3.org/2000/svg">
<path fill-rule="evenodd" clip-rule="evenodd" d="M11 0H10V10H0V11H10V21H11V11H21V10H11V0Z" fill="black"/>
</svg>
